X: 175
T:Qui edunt me
N: Derived from Jos1411-Qui_edunt_me.krn
C: Josquin des Prez
%%abc-version 2.0
%%abcx-abcm2ps-target-version 5.9.1 (29 Sep 2008)
%%abc-creator hum2abc beta
%%abcx-conversion-date 2019/02/12 16:15:46
%%abc-edited-by Jesse Rodin
%%abc-edited-by Will Watson 08/07/2011
%%abcx-initial-encoding-date 2011/08/07/
%%humdrum-veritas 3298041387
%%humdrum-veritas-data 2146448528
%%linebreak <none>
%%barnumbers 0
L: 1/4
M: 2/1
Q: 1/2=120
%%staves {1 2}
V: 1 clef=treble-8
V: 2 clef=bass
K: C
[V:1] z8 | 
[V:2] G,,8 | 
[V:1] z8 | 
[V:2] G,,4G,,4 | 
[V:1] G8 | 
[V:2] C,6C,2 | 
[V:1] G4G4 | 
[V:2] C,2C,2B,,2B,,2 | 
[V:1] c6c2 | 
[V:2] A,,8 | 
[V:1] c2c2B2B2 | 
[V:2] z4G,,4 | 
[V:1] A4z2G2 | 
[V:2] C,2C,2B,,4 | 
[V:1] c2c2B4 | 
[V:2] A,,4D,4- | 
[V:1] A4d4- | 
[V:2] D,2C,2B,,2A,,2 | 
[V:1] d2c2B2A2 | 
[V:2] G,,4z4 | 
[V:1] G4z2d2 | 
[V:2] G,4G,2G,2 | 
[V:1] d2d2c2A2 | 
[V:2] F,2D,2F,4 | 
[V:1] c4GABc | 
[V:2] C,D,E,F,G,2G,,A,, | 
[V:1] d2DEFGA2- | 
[V:2] B,,C,D,3C,A,,B,, | 
[V:1] A2G3FED | 
[V:2] C,D,E,3D,D,2- | 
[V:1] E4D2A2- | 
[V:2] D,2^C,2D,4- | 
[V:1] A2A2c2c2 | 
[V:2] D,4z4 | 
[V:1] B4A2DE | 
[V:2] z4z2D,2- | 
[V:1] FGA3GAB | 
[V:2] D,2D,2F,2F,2 | 
[V:1] cdecd4 | 
[V:2] E,4D,2G,,A,, | 
[V:1] D3EFGA2- | 
[V:2] B,,C,D,3C,D,E, | 
[V:1] ABcABAd2- | 
[V:2] F,G,A,F,G,F,E,D, | 
[V:1] d2^c2d4 | 
[V:2] E,4D,2G,2 | 
[V:1] z2d2d2d2 | 
[V:2] G,2G,2F,4 | 
[V:1] e4c2d2 | 
[V:2] E,2A,3G,F,E, | 
[V:1] B2c3BAG | 
[V:2] D,2A,3G,G,2- | 
[V:1] A4z2G2- | 
[V:2] G,2^F,2G,4 | 
[V:1] GABcd2e2- | 
[V:2] z2G,2G,2G,2 | 
[V:1] edcBA2B2 | 
[V:2] A,4F,2G,2 | 
[V:1] cBAGAGc2- | 
[V:2] E,2F,3E,D,C, | 
[V:1] c2B2c4 |]  
[V:2] D,4C,4 |]  



